TPFinal/static/svgs/solid/road-circle-check.svg

<svg xmlns="http://www.w3.org/2000/svg" viewBox="0 0 640 512"><!--! Font Awesome Free 6.2.1 by @fontawesome - https://fontawesome.com License - https://fontawesome.com/license/free (Icons: CC BY 4.0, Fonts: SIL OFL 1.1, Code: MIT License) Copyright 2022 Fonticons, Inc. --><path d="M213.2 32H288V96c0 17.7 14.3 32 32 32s32-14.3 32-32V32h74.8c27.1 0 51.3 17.1 60.3 42.6l42.7 120.6c-10.9-2.1-22.2-3.2-33.8-3.2c-59.5 0-112.1 29.6-144 74.8V224c0-17.7-14.3-32-32-32s-32 14.3-32 32v64c0 17.7 14.3 32 32 32c2.3 0 4.6-.3 6.8-.7c-4.5 15.5-6.8 31.8-6.8 48.7c0 5.4 .2 10.7 .7 16l-.7 0c-17.7 0-32 14.3-32 32v64H86.6C56.5 480 32 455.5 32 425.4c0-6.2 1.1-12.4 3.1-18.2L152.9 74.6C162 49.1 186.1 32 213.2 32zM640 368c0 79.5-64.5 144-144 144s-144-64.5-144-144s64.5-144 144-144s144 64.5 144 144zm-76.7-43.3c-6.2-6.2-16.4-6.2-22.6 0L480 385.4l-28.7-28.7c-6.2-6.2-16.4-6.2-22.6 0s-6.2 16.4 0 22.6l40 40c6.2 6.2 16.4 6.2 22.6 0l72-72c6.2-6.2 6.2-16.4 0-22.6z"/></svg>

<svg xmlns="http://www.w3.org/2000/svg" viewBox="0 0 640 512"><!--! Font Awesome Free 6.1.1 by @fontawesome - https://fontawesome.com License - https://fontawesome.com/license/free (Icons: CC BY 4.0, Fonts: SIL OFL 1.1, Code: MIT License) Copyright 2022 Fonticons, Inc. --><path d="M213.2 32H288V96C288 113.7 302.3 128 320 128C337.7 128 352 113.7 352 96V32H426.8C453.9 32 478 49.08 487.1 74.63L529.8 195.2C518.9 193.1 507.6 192 496 192C436.5 192 383.9 221.6 352 266.8V224C352 206.3 337.7 192 320 192C302.3 192 288 206.3 288 224V288C288 305.7 302.3 320 320 320C322.3 320 324.6 319.7 326.8 319.3C322.4 334.7 320 351.1 320 368C320 373.4 320.2 378.7 320.7 384L320 384C302.3 384 288 398.3 288 416V480H86.61C56.45 480 32 455.5 32 425.4C32 419.2 33.06 413 35.13 407.2L152.9 74.63C161.1 49.08 186.1 32 213.2 32H213.2zM640 368C640 447.5 575.5 512 496 512C416.5 512 352 447.5 352 368C352 288.5 416.5 224 496 224C575.5 224 640 288.5 640 368zM540.7 324.7L480 385.4L451.3 356.7C445.1 350.4 434.9 350.4 428.7 356.7C422.4 362.9 422.4 373.1 428.7 379.3L468.7 419.3C474.9 425.6 485.1 425.6 491.3 419.3L563.3 347.3C569.6 341.1 569.6 330.9 563.3 324.7C557.1 318.4 546.9 318.4 540.7 324.7H540.7z"/></svg>
